img-layout/phone.svg

<?xml version="1.0" encoding="UTF-8"?><!DOCTYPE svg PUBLIC "-//W3C//DTD SVG 1.1//EN" "http://www.w3.org/Graphics/SVG/1.1/DTD/svg11.dtd"><svg xmlns="http://www.w3.org/2000/svg" xmlns:xlink="http://www.w3.org/1999/xlink" version="1.1" width="24" height="24" viewBox="0 0 24 24"><path d="M6.62,10.79C8.06,13.62 10.38,15.94 13.21,17.38L15.41,15.18C15.69,14.9 16.08,14.82 16.43,14.93C17.55,15.3 18.75,15.5 20,15.5A1,1 0 0,1 21,16.5V20A1,1 0 0,1 20,21A17,17 0 0,1 3,4A1,1 0 0,1 4,3H7.5A1,1 0 0,1 8.5,4C8.5,5.25 8.7,6.45 9.07,7.57C9.18,7.92 9.1,8.31 8.82,8.59L6.62,10.79Z" /></svg>

<?xml version="1.0" encoding="utf-8"?>
<!-- Generator: Adobe Illustrator 20.1.0, SVG Export Plug-In . SVG Version: 6.00 Build 0)  -->
<svg version="1.1" id="Calque_1" xmlns="http://www.w3.org/2000/svg" xmlns:xlink="http://www.w3.org/1999/xlink" x="0px" y="0px"
	 viewBox="0 0 24 24" style="enable-background:new 0 0 24 24;" xml:space="preserve">
<style type="text/css">
	.st0{fill:#84E296;}
</style>
<path class="st0" d="M6.6,10.8c1.4,2.8,3.8,5.1,6.6,6.6l2.2-2.2c0.3-0.3,0.7-0.4,1-0.3c1.1,0.4,2.3,0.6,3.6,0.6c0.6,0,1,0.4,1,1V20
	c0,0.6-0.4,1-1,1C10.6,21,3,13.4,3,4c0-0.6,0.4-1,1-1h3.5c0.6,0,1,0.4,1,1c0,1.3,0.2,2.4,0.6,3.6c0.1,0.3,0,0.7-0.3,1L6.6,10.8z"/>
</svg>
